X:13
T:Highland Laddie or The White Cockade
S:American Veteran Fifer, #13
C:Donated by John Benjamin, Co.G, 30th Mich. Vol.Inf.
M:2/4
L:1/8
Q:1/8=180
K:G 
%%MIDI program 72
%%MIDI transpose 8
%%MIDI ratio 3 1
G/A/ | BB c/B/A/G/ | BB Bg | dB c/B/A/G/ |  F/G/A/B/ AG/A/ |
BB c/B/A/G/ | Bd gg/a/ | b/a/g/f/ a/g/f/e/ | dBB :|
|: B/c/ | dB gB | dd dB/c/ | dB gf/g/ | aA AG/A/ |
BB c/B/A/G/ | Bd gf/a/ | b/a/g/f/ a/g/f/e/ | dBB :|


